X:1
T:The False Knight Upon the Road
M:4/4
L:1/8
K:C
 D| B2 AA GG Ac| B2 AA G3 G| DD GG A2 Bc|d-c AB G3| d| d2 dd g3 B|\
 cc cc A3 A| BA Bc d2 GA| B2 cA G3||
